X: 30645
T: Ookpik
R: waltz
M: 3/4
K: Gmajor
D2|G3D GB|A3 F ED|E2 G3F|G2 B2 d2|
e3g e2|e2 d2 B2|d3 e d2|B2 g2 f2|
e3g e2|e2 d2 B2|d3 B AG|E4 D2|
C3 D EG|D3 E FA|G3 E DE|G4:|

